!!!!SEGMENT: pl-kk--kk-i-10--025_anonim--ad-regias-agni-daepes.krn
!!!cenid: 16xx:1230
!!!COM: Anonim
!!!COM-rismid: pe30004985
!!!CDT:
!!!CNT:
!!!OTL: Ad regias Agni daepes
!!!PDT:
!!!AGN:
!!!SMS-siglum: PL-Kk
!!!SMS-shelfmark: Kk.I.10
!!!SMS-shelfwork: 025 W
!!!SMS-variant:
!!!SMS-altvar:
!!!NIFC-rismid: 1001154017
!!!URL-scan: http://repozytorium.nifc.pl/skany/pl-kk-nut--i-10
!!!ONB-nifc: UWAGA: A (skan 0049), T (0097), B (0144). Następny utwór: Alto ex Olympi vertice
**kern	**fba	**text	**text	**text	**text	**text	**kern	**text	**text	**text	**text	**text	**kern	**text	**text	**text	**text	**text
*part3	*	*part3	*part3	*part3	*part3	*part3	*part2	*part2	*part2	*part2	*part2	*part2	*part1	*part1	*part1	*part1	*part1	*part1
*staff3	*	*staff3	*staff3	*staff3	*staff3	*staff3	*staff2	*staff2	*staff2	*staff2	*staff2	*staff2	*staff1	*staff1	*staff1	*staff1	*staff1	*staff1
*Ibass	*	*	*	*	*	*	*Itenor	*	*	*	*	*	*Ialto	*	*	*	*	*
*I"[Bassus]	*	*	*	*	*	*	*I"[Tenor]	*	*	*	*	*	*I"[Altus]	*	*	*	*	*
*I'B.	*	*	*	*	*	*	*I'T	*	*	*	*	*	*I'A	*	*	*	*	*
*clefF4	*	*	*	*	*	*	*clefC4	*	*	*	*	*	*clefC3	*	*	*	*	*
*k[]	*	*	*	*	*	*	*k[]	*	*	*	*	*	*k[]	*	*	*	*	*
*C:	*	*	*	*	*	*	*C:	*	*	*	*	*	*C:	*	*	*	*	*
*M3/4	*	*	*	*	*	*	*M3/4	*	*	*	*	*	*M3/4	*	*	*	*	*
=1	=1	=1	=1	=1	=1	=1	=1	=1	=1	=1	=1	=1	=1	=1	=1	=1	=1	=1
4C/	.	1 Ad	2 Di-	7 Vt	.	.	4c\	1 Ad	2 Di-	7 Vt	.	.	4g\	1 Ad	2 Di-	7 Vt	.	.
4C/	.	Re-	-vi-	Sis	.	.	4c\	Re-	-vi-	Sis	.	.	4g\	Re-	-vi-	Sis	.	.
4F\	.	-gi-	-na	pe-	.	.	4A\	-gi-	-na	pe-	.	.	4fn\	-gi-	-na	pe-	.	.
=2	=2	=2	=2	=2	=2	=2	=2	=2	=2	=2	=2	=2	=2	=2	=2	=2	=2	=2
2E\	6	-as	cu-	-ren-	.	.	2c\	-as	cu-	-ren-	.	.	2g\	-as	cu-	-ren-	.	.
4F\	.	A-	-i(us)	-ne	.	.	4A/	a-	-i(us)	-ne	.	.	4f\	a-	-i(us)	-ne	.	.
=3	=3	=3	=3	=3	=3	=3	=3	=3	=3	=3	=3	=3	=3	=3	=3	=3	=3	=3
2D/	7	-gni	cha-	men-	.	.	2A/	-gni	cha-	men-	.	.	2f\	gni	Cha-	men-	.	.
4D/	6	da-	-ri-	-ti-	.	.	4B\	da-	-ri-	-ti-	.	.	4d\	da-	-ri-	-ti-	.	.
=4	=4	=4	=4	=4	=4	=4	=4	=4	=4	=4	=4	=4	=4	=4	=4	=4	=4	=4
2C/	.	-pes	-tas	-b(us)	.	.	2G/	-pes	-tas	-b(us)	.	.	2e\	-pes	-tas	-b(us)	.	.
4G\	.	sto-	Sa-	Paſ-	.	.	4B\	sto-	Sa-	Paſ-	.	.	4g\	sto-	Sa-	Paſ-	.	.
=5	=5	=5	=5	=5	=5	=5	=5	=5	=5	=5	=5	=5	=5	=5	=5	=5	=5	=5
2E\	6	-lis	-cr(um)	-cha-	.	.	2c\	-lis	-cr(um)	-cha-	.	.	2g\	-lis	-cr(um)	-cha-	.	.
4C/	.	a-	pro-	-le	.	.	4c\	a-	pro-	-le	.	.	4e\	a-	pro-	-le	.	.
=6	=6	=6	=6	=6	=6	=6	=6	=6	=6	=6	=6	=6	=6	=6	=6	=6	=6	=6
2G\	.	-mic-	-pi-	Je-	.	.	2B\	-mic-	-pi-	Je-	.	.	2g\	-mic-	-pi-	Je-	.	.
4C/	.	-ti	-nat	-su	.	.	4G/	-ti	-nat	-su	.	.	2g\	-ti	-nat	-su	.	.
=7	=7	=7	=7	=7	=7	=7	=7	=7	=7	=7	=7	=7	=7-	=7	=7	=7	=7	=7
2D/	.	can-	San-	gau-	.	.	2d\	can-	San-	gau-	.	.	.	.	.	.	.	.
.	.	.	.	.	.	.	.	.	.	.	.	.	4.d\	can-	San-	gau-	.	.
4D/	.	-di-	-gui-	-di-	.	.	4d\	-di-	-gui-	-di-	.	.	.	.	.	.	.	.
.	.	.	.	.	.	.	.	.	.	.	.	.	8d\	-di-	-gui-	-di-	.	.
=8	=8	=8	=8	=8	=8	=8	=8	=8	=8	=8	=8	=8	=8	=8	=8	=8	=8	=8
2GG/	.	-dis	-ne(m)	-u(m)	.	.	2B\	-dis	-ne(m)	-um	.	.	2d\	-dis,	-ne(m)	-um	.	.
4c\	.	post	al-	a	.	.	4c\	post	al-	à	.	.	4g\	post	al-	à	.	.
=9	=9	=9	=9	=9	=9	=9	=9	=9	=9	=9	=9	=9	=9	=9	=9	=9	=9	=9
4.B\	6	tran-	-mi-	mor-	.	.	2d\	tran-	-mi-	mor-	.	.	2g\	tran-	-mi-	mor-	.	.
8A\	.	-ſi-	.	.	.	.	.	.	.	.	.	.	.	.	.	.	.	.
4G\	.	-tum	-(que)	-te	.	.	4d\	-si-	-(que)	-te	.	.	4g\	-si-	-(que)	-te	.	.
!	!	!	!	!	!	!	!	!	!	!	!	!	!LO:LB:g=original	!	!	!	!	!
=10	=10	=10	=10	=10	=10	=10	=10	=10	=10	=10	=10	=10	=10	=10	=10	=10	=10	=10
4c\	.	Ma-	mem-	di-	.	.	4c\	-tum	mem-	di-	.	.	4g\	-tum	mem-	di-	.	.
4B\	6	.	-bra	-ra	.	.	4d\	Ma-	.	.	.	.	4g\	Ma-	-bra	-ra	.	.
4A\	.	-ris	Cor-	Cri-	.	.	4A/	-ris	-brà	-ra	.	.	4c/	-ris	Cor-	Cri-	.	.
!	!	!	!	!	!	!	!LO:LB:g=original	!	!	!	!	!	!	!	!	!	!	!
=11	=11	=11	=11	=11	=11	=11	=11	=11	=11	=11	=11	=11	=11	=11	=11	=11	=11	=11
2G\	.	ru-	-po-	-mi-	.	.	4.B\	ru-	cor-	cri-	.	.	2g\	ru-	-po-	-mi-	.	.
.	.	.	.	.	.	.	8c\	-bri	-po-	-mi-	.	.	.	.	.	.	.	.
4G\	.	-bri	-ris	-n(um)	.	.	4d\	.	-ris	-nu(m)	.	.	4g\	-bri	-ris	-n(um)	.	.
!LO:LB:g=original	!	!	!	!	!	!	!	!	!	!	!	!	!	!	!	!	!	!
=12	=12	=12	=12	=12	=12	=12	=12	=12	=12	=12	=12	=12	=12	=12	=12	=12	=12	=12
!LO:N:vis=0	!	!	!	!	!	!	!	!	!	!	!	!	!LO:N:vis=0	!	!	!	!	!
1.r	.	.	.	.	.	.	4d\	Chri-	a-	Vi-	.	.	1.r	.	.	.	.	.
.	.	.	.	.	.	.	4d\	-sto	-mor	-tae	.	.	.	.	.	.	.	.
.	.	.	.	.	.	.	4d\	.	sa-	re-	.	.	.	.	.	.	.	.
=13	=13	=13	=13	=13	=13	=13	=13	=13	=13	=13	=13	=13	=13	=13	=13	=13	=13	=13
.	.	.	.	.	.	.	8B\L	ca-	-cer-	-na-	.	.	.	.	.	.	.	.
.	.	.	.	.	.	.	8c\	.	.	.	.	.	.	.	.	.	.	.
.	.	.	.	.	.	.	8B\	-na-	.	.	.	.	.	.	.	.	.	.
.	.	.	.	.	.	.	8A\J	.	.	.	.	.	.	.	.	.	.	.
.	.	.	.	.	.	.	4G/	-m(us)	-dos	-tos	.	.	.	.	.	.	.	.
=14	=14	=14	=14	=14	=14	=14	=14	=14	=14	=14	=14	=14	=14	=14	=14	=14	=14	=14
4G\	.	Chri-	a-	Vi-	.	.	8G/L	ca-	Sa-	re-	.	.	2.r	.	.	.	.	.
.	.	.	.	.	.	.	8F/	.	.	.	.	.	.	.	.	.	.	.
4G\	.	-sto	-mor	-tae	.	.	8G/	.	.	.	.	.	.	.	.	.	.	.
.	.	.	.	.	.	.	8A/J	.	.	.	.	.	.	.	.	.	.	.
4G\	.	ca-	sa-	re-	.	.	4B\	.	.	.	.	.	.	.	.	.	.	.
=15	=15	=15	=15	=15	=15	=15	=15	=15	=15	=15	=15	=15	=15	=15	=15	=15	=15	=15
8E\L	.	-na-	-cer-	-na-	.	.	2c\	-na-	-cer-	-na-	.	.	4g\	X-	a-	Vi-	.	.
8F\	.	.	.	.	.	.	.	.	.	.	.	.	.	.	.	.	.	.
8E\	.	.	.	.	.	.	.	.	.	.	.	.	4g\	-(t)o	-mor	-tae	.	.
8D\J	.	.	.	.	.	.	.	.	.	.	.	.	.	.	.	.	.	.
4C/	.	-m(us)	-dos	-tos	.	.	4c\	-m(us)	-ros	-tos	.	.	4g\	Ca-	sa-	re-	.	.
=16	=16	=16	=16	=16	=16	=16	=16	=16	=16	=16	=16	=16	=16	=16	=16	=16	=16	=16
4c\	.	Chris-	a-	Vi-	.	.	4e\	Chris-	a-	Vi-	.	.	8e\L	-na-	-cer-	-na-	.	.
.	.	.	.	.	.	.	.	.	.	.	.	.	8f\	.	.	.	.	.
4c\	.	-to	-mor	-tae	.	.	4e\	-to	-mor	-tae	.	.	8e\	.	.	.	.	.
.	.	.	.	.	.	.	.	.	.	.	.	.	8d\J	.	.	.	.	.
4c\	.	Ca-	Sa-	re-	.	.	4e\	Ca-	Sa-	re-	.	.	4c\	-m(us)	-dos	-tos	.	.
=17	=17	=17	=17	=17	=17	=17	=17	=17	=17	=17	=17	=17	=17	=17	=17	=17	=17	=17
8A\L	.	-na-	-cer-	-na-	.	.	8c\L	-na-	-cer-	-na-	.	.	4a\	X-	a-	Vi-	.	.
8B\	.	.	.	.	.	.	8d\	.	.	.	.	.	.	.	.	.	.	.
8A\	.	.	.	.	.	.	8c\	.	.	.	.	.	4a\	-(t)o	-mor	-tae	.	.
8G\J	.	.	.	.	.	.	8B\J	.	.	.	.	.	.	.	.	.	.	.
4F\	.	-m(us)	-dos	-tos	.	.	4A/	-m(us)	-dos	-tos	.	.	4a\	Ca-	Sa-	re-	.	.
=18	=18	=18	=18	=18	=18	=18	=18	=18	=18	=18	=18	=18	=18	=18	=18	=18	=18	=18
2G\	.	Ca-	Sa-	re-	.	.	2B\	Prin-	im-	li-	.	.	4g\	-na-	-cer-	-na-	.	.
.	.	.	.	.	.	.	.	.	.	.	.	.	4d\	.	.	.	.	.
4GG/	.	.	.	.	.	.	4B\	-ci-	-mo-	-be-	.	.	4g\	-m(us)	-dos	-[tos]	.	.
=19	=19	=19	=19	=19	=19	=19	=19	=19	=19	=19	=19	=19	=19	=19	=19	=19	=19	=19
2C/	.	-na-	-cer-	-na-	.	.	2c\	-pi	-lat	-ra	.	.	2g\	X-	.a-	Vi-	.	.
4E\	.	-m(us)	-dos	-tos	.	.	4G/	.	Sa-	re-	.	.	4g\	-(t)o	a-mor	-tae	.	.
!	!	!	!	!	!	!	!LO:LB:g=original	!	!	!	!	!	!	!	!	!	!	!
=20	=20	=20	=20	=20	=20	=20	=20	=20	=20	=20	=20	=20	=20	=20	=20	=20	=20	=20
4A\	.	X-	a-	Vi-	.	.	4.c\	Ca-	-cer-	-na-	.	.	4.a\	Ca-	Sa-	re-	.	.
4A\	.	-(t)o	-mor	-tae	.	.	.	.	.	.	.	.	.	.	.	.	.	.
.	.	.	.	.	.	.	8B\L	-na-	.	.	.	.	8g\L	-na-	.	-na-	.	.
4D/	.	Ca-	Sa-	re-	.	.	8c\	.	.	.	.	.	8a\	.	.	.	.	.
.	.	.	.	.	.	.	8A\J	.	.	.	.	.	8f\J	.	.	.	.	.
=21	=21	=21	=21	=21	=21	=21	=21	=21	=21	=21	=21	=21	=21	=21	=21	=21	=21	=21
2G\	.	-na-	-cer-	-na-	.	.	4.B\	.	.	.	.	.	4.g\	.	-cer-	.	.	.
.	.	.	.	.	.	.	8A/	.	.	.	.	.	8f\L	.	.	.	.	.
!	!	!	!	!	!	!	!LO:TX:t=P:problem:mixedbeam	!	!	!	!	!	!	!	!	!	!	!
4C/	.	-m(us)	-dos	-tos	.	.	(8G/L	-mus	-dos	-tos	.	.	8g\	-m(us)	dos	.	.	.
.	.	.	.	.	.	.	8c\J)	.	.	.	.	.	8f\J	.	.	-tos	.	.
!	!	!	!	!	!	!	!	!	!	!	!	!	!LO:LB:g=original	!	!	!	!	!
=22	=22	=22	=22	=22	=22	=22	=22	=22	=22	=22	=22	=22	=22	=22	=22	=22	=22	=22
2GG/	.	prin-	im-	li-	.	.	2c\	Prin-	im-	li-	.	.	2g\	Prin-	im-	li-	.	.
4GG/	.	-ci-	-mo-	-be-	.	.	4B\	-ci-	-mo-	-be-	.	.	4g\	-ci-	-mo-	-be-	.	.
!LO:LB:g=original	!	!	!	!	!	!	!	!	!	!	!	!	!	!	!	!	!	!
=23	=23	=23	=23	=23	=23	=23	=23	=23	=23	=23	=23	=23	=23	=23	=23	=23	=23	=23
1.C/	.	-pi	-lat	-ra	.	.	1.c\;;	-pi	-lat	-ra-	.	.	1.e\;;	-pi.	-lat	-ra	.	.
=24-	=24-	=24-	=24-	=24-	=24-	=24-	=24	=24	=24	=24	=24	=24	=24-	=24-	=24-	=24-	=24-	=24-
.	.	.	.	.	.	.	.	.	.	.	.	.	.	.	.	.	.	.
=25:|!|:	=25:|!|:	=25:|!|:	=25:|!|:	=25:|!|:	=25:|!|:	=25:|!|:	=25:|!|:	=25:|!|:	=25:|!|:	=25:|!|:	=25:|!|:	=25:|!|:	=25:|!|:	=25:|!|:	=25:|!|:	=25:|!|:	=25:|!|:	=25:|!|:
2F\	.	A-	.	.	.	.	2c\	A-	.	.	.	.	2f\	A-	.	.	.	.
4E\	.	-men	.	.	.	.	4c\	-men	.	.	.	.	4c/	-men	.	.	.	.
=26	=26	=26	=26	=26	=26	=26	=26	=26	=26	=26	=26	=26	=26	=26	=26	=26	=26	=26
*	*	*ij	*	*	*	*	*	*ij	*	*	*	*	*	*ij	*	*	*	*
1.F\	.	A-	.	.	.	.	1.c\	A-	.	.	.	.	1.f\	A-	.	.	.	.
=27-	=27-	=27-	=27-	=27-	=27-	=27-	=27-	=27-	=27-	=27-	=27-	=27-	=27-	=27-	=27-	=27-	=27-	=27-
.	.	.	.	.	.	.	.	.	.	.	.	.	.	.	.	.	.	.
=28-	=28-	=28-	=28-	=28-	=28-	=28-	=28-	=28-	=28-	=28-	=28-	=28-	=28-	=28-	=28-	=28-	=28-	=28-
0.C/;;	.	-men	.	.	.	.	0.c;;\	-men	.	.	.	.	0.e;;\	-men	.	.	.	.
*	*	*Xij	*	*	*	*	*	*Xij	*	*	*	*	*	*Xij	*	*	*	*
=29-	=29-	=29-	=29-	=29-	=29-	=29-	=29-	=29-	=29-	=29-	=29-	=29-	=29-	=29-	=29-	=29-	=29-	=29-
.	.	.	.	.	.	.	.	.	.	.	.	.	.	.	.	.	.	.
=30-	=30-	=30-	=30-	=30-	=30-	=30-	=30-	=30-	=30-	=30-	=30-	=30-	=30-	=30-	=30-	=30-	=30-	=30-
.	.	.	.	.	.	.	.	.	.	.	.	.	.	.	.	.	.	.
=31-	=31-	=31-	=31-	=31-	=31-	=31-	=31-	=31-	=31-	=31-	=31-	=31-	=31-	=31-	=31-	=31-	=31-	=31-
.	.	.	.	.	.	.	.	.	.	.	.	.	.	.	.	.	.	.
!LO:LB:g=original	!	!	!	!	!	!	!LO:LB:g=original	!	!	!	!	!	!LO:LB:g=original	!	!	!	!	!
=32	=32	=32	=32	=32	=32	=32	=32	=32	=32	=32	=32	=32	=32-	=32-	=32-	=32-	=32-	=32-
*M3/4	*	*	*	*	*	*	*M3/4	*	*	*	*	*	*M3/4	*	*	*	*	*
4F\	.	3 Spar-	4 Jam	5 O	6 Vi-	8 De-	4A/	3 Spar-	4 Jam	5 O	6 Vi-	8 De-	4f\	3 Spar-	4 Jam	5 O	6 Vi-	8 De-
4F\	.	-su(m)	Paſ-	Ve-	-ctor	-o	4A/	-su(m)	Paſ-	Ve-	-ctor	-o	4f\	-su(m)	Pas-	ve-	-ctor	-o
4E\	.	Cru-	-cha	-ra	Su-	Pa-	4c\	Cru-	-cha	-ra	Su-	Pa-	4g\	Cru-	-cha	-ra	Su-	Pa-
=33	=33	=33	=33	=33	=33	=33	=33	=33	=33	=33	=33	=33	=33	=33	=33	=33	=33	=33
4F\	.	-o-	noſ-	Cae-	-ba-	-tri	2A/	-o-	nos-	cae-	-ba-	-tri	(4a\	-o-	nos-	cae-	-ba-	-tri
(4D\	.	-re	-tru(m)	-li	-ctis	Sit	.	.	.	.	.	.	4f\)	.	-tru(m)	.	.	Sit
4G\)	.	.	.	.	.	glo-	4B\	-re	-tru(m)	-li	-ctis	Sit	4g\	-re	.	-li	-ctis	glo-
=34	=34	=34	=34	=34	=34	=34	=34	=34	=34	=34	=34	=34	=34	=34	=34	=34	=34	=34
4.C/	.	poſ-	Chriſ-	Vic-	-In-	-ri-	4.c\	poſ-	X-	Vic-	In-	glo-	4.g\	poſ-	(Chri-	vic-	In-	-ri-
8C/	.	-ti-	-t(us)	-ti-	-fe-	-a	8c\	-ti-	-(tus)	-ti-	-fe-	-ri-	8g\	-ti-	-stus)	-ti-	fe-	-a
4C/	.	-bus	est	-ma	-ris	et	4c\	-b(us)	eſt	-ma	-ris	-a	4g\	-bus	est	-ma	-ris	et
=35	=35	=35	=35	=35	=35	=35	=35	=35	=35	=35	=35	=35	=35	=35	=35	=35	=35	=35
4c\	.	Vas-	Paſ-	Sub-	Tro-	Fi-	4c\	Vaſ-	Paſ-	Sub-	Tro-	et	4g\	Vaſ-	Pas-	Sub-	Tro-	Fi-
4c\	.	-tra-	-cha-	-jec-	-phae	-li-	4d\	-tra-	-cha-	-jec-	.	Fi-	4g\	-tra-	-cha-	-jec-	-phae-	-li-
4B\	.	-tor	-lis	-ta	.	-o	4B\	-tor	-lis	-ta	-phae	-lio	4g\	-tor	-lis	-ta	-a	-o
=36	=36	=36	=36	=36	=36	=36	=36	=36	=36	=36	=36	=36	=36	=36	=36	=36	=36	=36
2c\	.	hor-	i-	cuî	X-	qui	2c\	hor-	i-	cuî	X-	qui	2e\	hor-	i-	Cuî	X-	qui
2B\	.	-ret	-dem	Sunt	-(us)	a	2d\	-ret	-d(em)	Sunt	-(tus)	a	2g\	-ret	-dem	Sunt	-(tus)	à
=37-	=37-	=37-	=37-	=37-	=37-	=37-	=37-	=37-	=37-	=37-	=37-	=37-	=37-	=37-	=37-	=37-	=37	=37
.	.	.	.	.	.	.	.	.	.	.	.	.	.	.	.	.	.	.
4.A\	.	An-	Vic-	Tar-	ex-	mor-	4e\	An-	Vic-	Tar-	ex-	mor-	4.a\	An-	Vic-	Tar-	ex-	mor-
.	.	.	.	.	.	.	4A/	-ge-	-ti-	-ta-	-pli-	-tu-	.	.	.	.	.	.
8A\	.	-ge-	-ti-	-ta-	-pli-	-tu-	.	.	.	.	.	.	8a\	-ge-	-ti-	-ta-	-pli-	-tu-
=38	=38	=38	=38	=38	=38	=38	=38	=38	=38	=38	=38	=38	=38	=38	=38	=38	=38	=38
2.G\	.	-l(us)	-ma	-ra	-cat	-is	2.B\,<	-l(us)	-ma	-ra	-cat	-is	2.d/	-l(us)	-ma	-ra	-cat	-is
=39	=39	=39	=39	=39	=39	=39	=39	=39	=39	=39	=39	=39	=39	=39	=39	=39	=39	=39
4E\	.	fu-	Et	So-	Cae-	Sur-	4B\	fu-	et	So-	Cae-	Sur-	4g#\	fu-	et	So-	Cae-	Sur-
4E\	.	-git-	pu-	-lu-	-lo-	-re-	4B\	-git-	pu-	-lu-	-lo-	-re-	4g#\	-git-	pu-	-lu-	-lo-	-re-
4E\	.	-(que)	-ra	-ta	-(que)	-xit	4B\	-(que)	-ra	-ta	-(que)	-xit	4g#\	-(que)	-ra	-ta	-(que)	-xit
=40	=40	=40	=40	=40	=40	=40	=40	=40	=40	=40	=40	=40	=40	=40	=40	=40	=40	=40
2A\	.	di-	pu-	mor-	a-	ad	2A/	di-	pu-	mor-	a-	ad	4a\	di-	pu-	mor-	a-	ad
.	.	.	.	.	.	.	.	.	.	.	.	.	4e\	.	.	.	-per-	.
4A\	.	-vi-	-ris	-tis	-perto	Pa-	4A/	-vi-	-ris	-tis	-perto	Pa-	[4a\	-vi-	-ris	-tis	-to	Pa-
!LO:LB:g=original	!	!	!	!	!	!	!	!	!	!	!	!	!LO:LB:g=original	!	!	!	!	!
=41	=41	=41	=41	=41	=41	=41	=41	=41	=41	=41	=41	=41	=41	=41	=41	=41	=41	=41
2E\	.	-su(m)	men-	Vin-	Sub-	-ra-	2A/	-su(m)	men-	Vin-	Sub-	-ra-	4a\]	.	.	.	.	.
.	.	.	.	.	.	.	.	.	.	.	.	.	4.e\	-sum	[men-	[Vin-	[Sub-	-[ra-
!	!	!	!	!	!	!	!LO:TX:t=P:problem:# below	!	!	!	!	!	!	!	!	!	!	!
4E\	.	ma-	-ti-	-cu-	-di-	-cli-	4G#X/	ma-	-ti-	-cu-	-di-	-cli-	.	.	.	.	.	.
.	.	.	.	.	.	.	.	.	.	.	.	.	8e\	ma-	-ti-	-cu-	-di-	-cli-
=42	=42	=42	=42	=42	=42	=42	=42	=42	=42	=42	=42	=42	=42	=42	=42	=42	=42	=42
2.AA/	.	-re	-b(us)	-la	-tum	-to	2.A/	-re	-b(us)	-la	-tum	-to	2.e\	-re	-bus]	-la]	-tum]	-to
!	!	!	!	!	!	!	!LO:LB:g=original	!	!	!	!	!	!	!	!	!	!	!
=43	=43	=43	=43	=43	=43	=43	=43	=43	=43	=43	=43	=43	=43	=43	=43	=43	=43	=43
!LO:N:vis=00	!	!	!	!	!	!	!	!	!	!	!	!	!	!	!	!	!	!
0.r	.	.	.	.	.	.	4F/	Mer-	Sin-	re-	Re-	In	4a\	Mer-	Sin-	Re-	Re-	In
.	.	.	.	.	.	.	4A/	-guen-	-ce-	-ce-	-gem	Sem-	4a\	-guen-	-ce-	-ce-	-gem	Sem]-
.	.	.	.	.	.	.	4F/	-ter	-ri-	-pta	te-	-pi-	4a\	-ter	-ri-	-pta	te-	-pi-
=44	=44	=44	=44	=44	=44	=44	=44	=44	=44	=44	=44	=44	=44	=44	=44	=44	=44	=44
.	.	.	.	.	.	.	2B-X\	hos-	-ta-	Vi-	-ne-	-ter-	2f\	hos-	-ta-	vi-	-ne-	-ter-
.	.	.	.	.	.	.	4G/	-tes	-tis	-tae	-bra-	-na	4f\	-tes	-tiſ	-tae	-bra-	-na
=45	=45	=45	=45	=45	=45	=45	=45	=45	=45	=45	=45	=45	=45	=45	=45	=45	=45	=45
.	.	.	.	.	.	.	2c\	flu-	a-	prae-	-ru(m)	Sae-	2f\	flu-	a-	prae-	-rum	Sae-
.	.	.	.	.	.	.	4c\	-cti-	-zy-	-mi-	tra-	-cu-	4e\	-cti-	-zy-	-mi-	tra-	-cu-
=46	=46	=46	=46	=46	=46	=46	=46	=46	=46	=46	=46	=46	=46	=46	=46	=46	=46	=46
.	.	.	.	.	.	.	2.F/	-b(us)	-ma	-a	-his	-la	2.f\	-b(us)	-ma	-a	-his	-la
=47	=47	=47	=47	=47	=47	=47	=47	=47	=47	=47	=47	=47	=47	=47	=47	=47	=47	=47
*	*	*	*	*	*	*	*	*ij	*ij	*ij	*ij	*ij	*	*ij	*ij	*ij	*ij	*ij
4C/	.	Mer-	Sin-	re-	Re-	In	4c\	Mer-	Sin-	Re-	Re-	In	4e\	Mer-	Sin-	Re-	Re-	In
4E\	.	-guen-	-ce-	-ce-	-gem	Sem-	4c\	-guen-	-ce-	-ce-	-gem	Sem-	4g\	-guen-	-ce-	-ce-	-gem	Sem-
4C/	.	-ter	-ri-	-pta	te-	-pi-	4c\	-ter	-ri-	-pta	te-	-pi-	4e\	-ter	-ri-	-pta	te-	-pi-
=48	=48	=48	=48	=48	=48	=48	=48	=48	=48	=48	=48	=48	=48	=48	=48	=48	=48	=48
2F\	.	hos-	-ta-	vi-	-ne-	-ter-	2A/	hos-	-ta-	vi-	-ne-	-ter-	2a\	hos-	-ta-	vi-	-ne-	-ter-
4D/	.	-tes	-tis	-tae	-bra-	-na	4d\	-tes	-tis	-tae	-bra-	-na	4a\	-tes	-tiſ	-tae	-bra-	-na
=49	=49	=49	=49	=49	=49	=49	=49	=49	=49	=49	=49	=49	=49	=49	=49	=49	=49	=49
2G\	.	flu-	a-	prae-	-rum	Sae-	2c\	flu-	a-	prae-	-rum	Sae-	2g\	flu-	a-	prae-	-rum	Sae-
4GG/	.	-cti-	-zy-	-mi-	tra-	-cu-	4B\	-cti-	-zy-	-mi-	tra-	-cu-	4g\	-cti-	-zy-	-mi-	tra-	-cu-
=50	=50	=50	=50	=50	=50	=50	=50	=50	=50	=50	=50	=50	=50	=50	=50	=50	=50	=50
!LO:TX:t=P:problem:na końcu dodatkowa dwukreska z obustronną repetycją	!	!	!	!	!	!	!LO:TX:t=P:problem:na końcu dodatkowa dwukreska z obustronną repetycją	!	!	!	!	!	!	!	!	!	!	!
1.C/	.	-b(us)-	-ma-	-a	-his-	-la-	1.c\	-b(us)	-ma	-a	-his	-la	1.g\	-b(us)	-ma	-a	-his	-la-
=:|!	=:|!	=:|!	=:|!	=:|!	=:|!	=:|!	=:|!	=:|!	=:|!	=:|!	=:|!	=:|!	=:|!	=:|!	=:|!	=:|!	=:|!	=:|!
*-	*-	*-	*-	*-	*-	*-	*-	*-	*-	*-	*-	*-	*-	*-	*-	*-	*-	*-
!!!system-decoration: s1,s2,s3
!!!RDF**kern: < = below
!!!EED: Andrzej Borzym
!!!EST: 2021-07-09
!!!ENC: Anastazja Marusiak
!!!END: 2021-06-30
